X:171
T:Drops of Brandy
M:9/8
L:1/8
B:Thompson's Compleat Collection of 200 Favourite Country Dances, vol. 2 (London, 1765)
Z:Transcribed and edited by Flynn Titford-Mock, 2007
Z:abc's:AK/Fiddler's Companion
K:G
G>AB B>AB B>AB | GAB dBG B2g | G>AB B>AB B>AB | F>GA ABG F2D :|
|: G>AB gdB gdB | G>AB gdB d2g | G>AB gdB gdB | F>GA AG F2D :|

